src/images/assets/github-dark.svg

<svg xmlns="http://www.w3.org/2000/svg" xmlns:xlink="http://www.w3.org/1999/xlink" width="200" zoomAndPan="magnify" viewBox="0 0 150 149.999998" height="200" preserveAspectRatio="xMidYMid meet" version="1.0"><defs><clipPath id="df63a49b5a"><path d="M 0.0507812 0 L 150 0 L 150 149.96875 L 0.0507812 149.96875 Z M 0.0507812 0 " clip-rule="nonzero"/></clipPath></defs><g clip-path="url(#df63a49b5a)"><path fill="#14213d" d="M 75.042969 12.480469 C 40.527344 12.480469 12.546875 40.460938 12.546875 74.976562 C 12.546875 109.488281 40.527344 137.46875 75.042969 137.46875 C 109.554688 137.46875 137.535156 109.488281 137.535156 74.976562 C 137.535156 40.460938 109.554688 12.480469 75.042969 12.480469 Z M 0.0507812 74.976562 C 0.0507812 33.558594 33.625 -0.0195312 75.042969 -0.0195312 C 116.460938 -0.0195312 150.035156 33.558594 150.035156 74.976562 C 150.035156 116.390625 116.460938 149.96875 75.042969 149.96875 C 33.625 149.96875 0.0507812 116.390625 0.0507812 74.976562 Z M 0.0507812 74.976562 " fill-opacity="1" fill-rule="evenodd"/></g><path fill="#14213d" d="M 59.992188 142.066406 C 59.386719 141.285156 59.386719 134.335938 59.992188 121.214844 C 53.515625 121.4375 49.425781 120.988281 47.722656 119.867188 C 45.160156 118.183594 42.597656 112.992188 40.324219 109.332031 C 38.050781 105.675781 33.003906 105.097656 30.964844 104.277344 C 28.925781 103.460938 28.414062 100.128906 36.582031 102.648438 C 44.746094 105.167969 45.144531 112.035156 47.722656 113.640625 C 50.296875 115.246094 56.453125 114.542969 59.246094 113.257812 C 62.039062 111.972656 61.832031 107.183594 62.332031 105.285156 C 62.960938 103.515625 60.742188 103.121094 60.691406 103.109375 C 57.96875 103.109375 43.652344 99.996094 39.71875 86.132812 C 35.785156 72.269531 40.851562 63.207031 43.554688 59.3125 C 45.355469 56.714844 45.195312 51.179688 43.078125 42.707031 C 50.773438 41.726562 56.714844 44.148438 60.898438 49.976562 C 60.902344 50.011719 66.382812 46.71875 75.042969 46.71875 C 83.703125 46.71875 86.777344 49.402344 89.148438 49.976562 C 91.519531 50.554688 93.414062 39.773438 108.0625 42.707031 C 105.003906 48.71875 102.441406 56.226562 104.398438 59.3125 C 106.351562 62.398438 114.023438 72.207031 109.308594 86.132812 C 106.167969 95.414062 99.992188 101.074219 90.785156 103.109375 C 89.730469 103.445312 89.203125 103.988281 89.203125 104.738281 C 89.203125 105.863281 90.628906 105.988281 92.6875 111.257812 C 94.058594 114.773438 94.15625 124.808594 92.984375 141.363281 C 90.011719 142.121094 87.699219 142.628906 86.046875 142.890625 C 83.117188 143.351562 79.9375 143.609375 76.8125 143.707031 C 73.6875 143.808594 72.605469 143.796875 68.285156 143.394531 C 65.402344 143.125 62.640625 142.683594 59.992188 142.066406 Z M 59.992188 142.066406 " fill-opacity="1" fill-rule="evenodd"/></svg>

<svg xmlns="http://www.w3.org/2000/svg" width="200" viewBox="0 0 150 150" height="200" version="1.0"><defs><clipPath id="a"><path d="M.05 0H150v149.969H.05Zm0 0"/></clipPath></defs><g clip-path="url(#a)"><path fill="#14213d" d="M75.043 12.48c-34.516 0-62.496 27.98-62.496 62.497 0 34.511 27.98 62.492 62.496 62.492 34.512 0 62.492-27.98 62.492-62.492 0-34.516-27.98-62.497-62.492-62.497ZM.051 74.977C.05 33.559 33.625-.02 75.043-.02c41.418 0 74.992 33.579 74.992 74.997 0 41.414-33.574 74.992-74.992 74.992-41.418 0-74.992-33.578-74.992-74.992Zm0 0" fill-rule="evenodd"/></g><path fill="#14213d" d="M59.992 142.066c-.605-.78-.605-7.73 0-20.851-6.476.222-10.566-.227-12.27-1.348-2.562-1.683-5.124-6.875-7.398-10.535-2.273-3.656-7.32-4.234-9.36-5.055-2.038-.816-2.55-4.148 5.618-1.629 8.164 2.52 8.563 9.387 11.14 10.993 2.575 1.605 8.731.902 11.524-.383 2.793-1.285 2.586-6.074 3.086-7.973.629-1.77-1.59-2.164-1.64-2.176-2.723 0-17.04-3.113-20.973-16.976-3.934-13.863 1.133-22.926 3.836-26.82 1.8-2.598 1.64-8.133-.477-16.606 7.695-.98 13.637 1.441 17.82 7.27.004.035 5.485-3.258 14.145-3.258s11.734 2.683 14.105 3.258c2.372.578 4.266-10.204 18.915-7.27-3.06 6.012-5.622 13.52-3.665 16.605 1.954 3.086 9.625 12.895 4.91 26.82-3.14 9.282-9.316 14.942-18.523 16.977-1.055.336-1.582.88-1.582 1.63 0 1.124 1.426 1.25 3.484 6.519 1.372 3.515 1.47 13.55.297 30.105-2.972.758-5.285 1.266-6.937 1.528-2.93.46-6.11.718-9.234.816-3.126.102-4.208.09-8.528-.312a61.875 61.875 0 0 1-8.293-1.329Zm0 0" fill-rule="evenodd"/></svg>
